X: 2192
T: Şu Güzeller Güzeli
C: Necip Mirkelâmoğlu
O: Turkey
F: http://compmusic.upf.edu/node/140
N: nihavent--sarki--duyek--su_guzeller--necip_mirkelamoglu
N: makam= nihavent
N: form= sarki
N: usul= duyek = 8/4
M: 8/4
L: 1/16
K: C _B _e  
Q: 1/4=120
%%MIDI tuningsystem comma53
zd dd e2 dc e2 dc e2 d2  | zc cc d2 cB d2 cB d2 c2  | 
w:   |   | 
zB AB c2 BA GA Bc d4  | zg2d e2 c2 B2 A2 G4  | \
w:   |   | 
zd dd e2 dc e2 dc e2 d2  | 
w:   | 
zc cc d2 cB d2 cB d2 c2  | zB AB c2 BA GA Bc d4  | 
w:   |   | 
zg2d e2 c2 B2 A2 G4  | z2 GA B2 c2 B2 c2 d4  | \
w:   |  Şu  gü zel ler  gü ze li   | 
zd2g fe dc B2 A2 G4  | 
w:  yâr  gi bi  *  gel *  di  ba na    | 
z2 GA B2 c2 B2 c2 d4  | zd2e d2 c2 B2 c2 d4  | \
w:  Şu  gü zel ler  gü ze li   |  yâr  gi bi  gel di  ba na    | 
zd2g fe dc B2 c2 d4  | 
w:  Göz le rin *  de  *  bir  mâ nâ   | 
zg2d e2 c2 B2 A2 G4  | zd2g fe dc B2 c2 d4  | \
w:  var  gi bi  gel di  ba na    |  Göz le rin *  de  *  bir  mâ nâ   | 
zg2d e2 c2 B2 A2 G4  | 
w:  var  gi bi  gel di  ba na    | 
zd dd e2 dc e2 dc e2 d2  | zc cc d2 cB d2 cB d2 c2  | 
w:   |   | 
zB AB c2 BA GA Bc d4  | zg2d e2 c2 B2 A2 G4  | \
w:   |   | 
zd dd e2 dc e2 dc e2 d2  | 
w:   | 
zc cc d2 cB d2 cB d2 c2  | zB AB c2 BA GA Bc d4  | 
w:   |   | 
zg2d e2 c2 B2 A2 G4  | zg2b a2 g2 ^f2 g2 a4  | \
w:   |  Bir  mü na sip  za man da   | 
z2 c'b a2 g2 ^f2 ge d4  | 
w:  me se lâ  sa at  on *  da    | 
z2 dg fe dc B2 c2 d4  | zg2d e2 c2 B2 A2 G4  | \
w:  Bu lu şa *  lım  *  Kor don da   |  der  gi bi  gel di  ba na    | 
zg2b a2 g2 ^f2 g2 a4  | 
w:  Bir  mü na sip  za man da   | 
z2 c'b a2 g2 ^f2 ge d4  | z2 dg fe dc B2 c2 d4  | \
w:  me se lâ  sa at  on *  da    |  Bu lu şa *  lım  *  Kor don da   | 
zg2d e2 c2 B2 A2 G4  | 
w:  der  gi bi  gel di  ba na    | 
|


